icons/1_Primary/Minehub.de.svg

<svg width="1024" height="1024" viewBox="0 0 1024 1024" fill="none" xmlns="http://www.w3.org/2000/svg">
<g clip-path="url(#clip0_2_2817)">
<path d="M512 1024C794.77 1024 1024 794.77 1024 512C1024 229.23 794.77 0 512 0C229.23 0 0 229.23 0 512C0 794.77 229.23 1024 512 1024Z" fill="#BA6561"/>
<path d="M751 559V483.33L573.19 736.85C596.544 736.85 619.669 732.25 641.244 723.311C662.82 714.373 682.423 701.272 698.935 684.757C715.447 668.241 728.543 648.635 737.477 627.057C746.41 605.48 751.005 582.354 751 559ZM273 559V483.33L450.81 736.85C427.456 736.85 404.331 732.25 382.756 723.311C361.18 714.373 341.577 701.272 325.065 684.757C308.553 668.241 295.457 648.635 286.524 627.057C277.59 605.48 272.995 582.354 273 559ZM751 396.29V298.92L512 639.71L273 298.92V396.29L512 737.09L751 396.29Z" fill="white"/>
</g>
<defs>
<clipPath id="clip0_2_2817">
<rect width="1024" height="1024" fill="white"/>
</clipPath>
</defs>
</svg>

<svg width="1024" height="1024" fill="none" xmlns="http://www.w3.org/2000/svg"><g clip-path="url(#a)"><path d="M512 1024c282.77 0 512-229.23 512-512S794.77 0 512 0 0 229.23 0 512s229.23 512 512 512Z" fill="#BA6561"/><path d="M751 559v-75.67L573.19 736.85A177.81 177.81 0 0 0 751 559Zm-478 0v-75.67l177.81 253.52A177.81 177.81 0 0 1 273 559Zm478-162.71v-97.37L512 639.71 273 298.92v97.37l239 340.8 239-340.8Z" fill="#fff"/></g><defs><clipPath id="a"><path fill="#fff" d="M0 0h1024v1024H0z"/></clipPath></defs></svg>
